svg/u1f530.svg

<svg viewBox="0 0 128 128" xmlns="http://www.w3.org/2000/svg">
  <g>
    <path d="M61.5,34l-39-29.12C19.88,2.79,16,4.65,16,8.01v82.07c0,1.22,0.55,2.36,1.5,3.12l44,29.92 c0.73,0.58,1.61,0.88,2.5,0.88V34.88C63.12,34.88,62.23,34.59,61.5,34z" fill="#FCE438"/>
    <path d="M105.5,4.88L66.5,34c-0.73,0.58-1.61,0.88-2.5,0.88V124c0.88,0,1.77-0.29,2.5-0.88l44-29.92 c0.95-0.76,1.5-1.91,1.5-3.12V8.01C112,4.65,108.12,2.79,105.5,4.88z" fill="#26A69A"/>
  </g>
  <path d="M20.75,19.81c1.4,1.32,29.03,21.24,29.03,21.24 s2.83,2.06,4.72-0.17c1.83-2.14,0.25-4.43-1.24-5.45c-1.49-1.02-25.1-18.67-26.7-19.53c-1.54-0.93-4.13-0.52-5.5,0.6 S19.71,18.85,20.75,19.81z" opacity="0.6" fill="#FFFFFF" enable-background="new "/>
  <g>
    <path d="M73.57,42.02c1.71-0.87,20.91-15.79,20.91-15.79 s2.89-1.97,1.43-4.5c-1.4-2.44-4.09-1.73-5.55-0.67c-1.46,1.06-17.17,12.95-18.51,14.17c-1.4,1.14-1.88,3.71-1.29,5.38 C71.16,42.28,72.32,42.68,73.57,42.02z" opacity="0.3" fill="#FFFFFF" enable-background="new "/>
    <circle cx="100.61" cy="16.97" r="3.3" opacity="0.3" fill="#FFFFFF" enable-background="new "/>
  </g>
</svg>

<svg viewBox="0 0 128 128" xmlns="http://www.w3.org/2000/svg">
  <defs/>
  <path d="M61.5,34 L22.5,4.88 C19.88,2.79 16,4.65 16,8.01 L16,90.08 C16,91.3 16.55,92.44 17.5,93.2 L61.5,123.12 C62.23,123.7 63.11,124 64,124 L64,34.88 C63.12,34.88 62.23,34.59 61.5,34 Z" fill="#FCE438"/>
  <path d="M105.5,4.88 L66.5,34 C65.77,34.58 64.89,34.88 64,34.88 L64,124 C64.88,124 65.77,123.71 66.5,123.12 L110.5,93.2 C111.45,92.44 112,91.29 112,90.08 L112,8.01 C112,4.65 108.12,2.79 105.5,4.88 Z" fill="#26A69A"/>
  <path d="M20.75,19.81 C22.15,21.13 49.78,41.05 49.78,41.05 C49.78,41.05 52.61,43.11 54.5,40.88 C56.33,38.74 54.75,36.45 53.26,35.43 C51.77,34.41 28.16,16.76 26.56,15.9 C25.02,14.97 22.43,15.38 21.06,16.5 C19.69,17.62 19.71,18.85 20.75,19.81 Z" fill="#FFFFFF" opacity="0.6"/>
  <path d="M73.57,42.02 C75.28,41.15 94.48,26.23 94.48,26.23 C94.48,26.23 97.37,24.26 95.91,21.73 C94.51,19.29 91.82,20 90.36,21.06 C88.9,22.12 73.19,34.01 71.85,35.23 C70.45,36.37 69.97,38.94 70.56,40.61 C71.16,42.28 72.32,42.68 73.57,42.02 Z" fill="#FFFFFF" opacity="0.3"/>
  <path d="M103.91,16.97 A3.3 3.3 0 1 1 97.31,16.97 A3.3 3.3 0 1 1 103.91,16.97 Z" fill="#FFFFFF" opacity="0.3"/>
</svg>
